src/assets/data/principles/4.svg

<svg width="860" height="748" viewBox="0 0 860 748" fill="none" xmlns="http://www.w3.org/2000/svg">
  <g clip-path="url(#a)">
    <path fill="url(#b)" d="M330.136 543.588c-36.456-21.199-83.063-8.601-104.106 28.141l-27.858-104.875c21.044-36.719 67.674-49.317 104.107-28.141l27.857 104.875Z"/>
    <path fill="url(#c)" d="M380.87 482.514c-20.488 11.92-46.654 5.61-59.54-14.351l-19.027-29.45 27.857 104.875 19.028 29.45c12.909 19.961 39.052 26.272 59.539 14.351L380.87 482.514Z"/>
    <path fill="url(#d)" d="m380.87 482.538 27.857 104.875 113.517-194.768-27.858-104.875L380.87 482.538Z"/>
    <path fill="url(#e)" d="m626.304 363.755 101.465-189.819-35.413-111.77-93.632 197.765 27.58 103.848v-.024Z"/>
    <path fill="url(#f)" d="M626.304 364.783c-36.456-21.199-83.063-8.601-104.107 28.142L494.34 288.049c21.044-36.719 67.674-49.317 104.107-28.141l27.857 104.875Z"/>
    <path fill="url(#g)" d="m226.03 571.707-67.214 115.67-27.579-103.847 66.935-116.698 27.881 104.852-.023.023Z"/>
  </g>
  <defs>
    <linearGradient id="b" x1="313.913" x2="222.333" y1="466.013" y2="528.862" gradientUnits="userSpaceOnUse">
      <stop stop-color="#422562"/>
      <stop offset="1" stop-color="#831F82"/>
    </linearGradient>
    <linearGradient id="c" x1="316.649" x2="385.447" y1="523.067" y2="507.427" gradientUnits="userSpaceOnUse">
      <stop stop-color="#422562"/>
      <stop offset="1" stop-color="#831F82"/>
    </linearGradient>
    <linearGradient id="d" x1="273.68" x2="525.367" y1="359.946" y2="467.942" gradientUnits="userSpaceOnUse">
      <stop offset=".04" stop-color="#520B2E"/>
      <stop offset="1" stop-color="#DE007E"/>
    </linearGradient>
    <linearGradient id="e" x1="692.68" x2="537.214" y1="165.504" y2="223.652" gradientUnits="userSpaceOnUse">
      <stop stop-color="#181818"/>
      <stop offset="1" stop-color="#FFE500"/>
    </linearGradient>
    <linearGradient id="f" x1="663.154" x2="509.11" y1="278.279" y2="335.412" gradientUnits="userSpaceOnUse">
      <stop stop-color="#121212"/>
      <stop offset="1" stop-color="#FFE500"/>
    </linearGradient>
    <linearGradient id="g" x1="239.101" x2="136.472" y1="577.34" y2="615.637" gradientUnits="userSpaceOnUse">
      <stop stop-color="#0069B4"/>
      <stop offset="1" stop-color="#181818"/>
    </linearGradient>
    <clipPath id="a">
      <path fill="#fff" d="M0 0h860v750H0z"/>
    </clipPath>
  </defs>
</svg>

<svg width="860" height="748" viewBox="0 0 860 748" fill="none" xmlns="http://www.w3.org/2000/svg">
<g clip-path="url(#clip0_2163_2754)">
<path d="M330.136 543.588C293.68 522.389 247.073 534.987 226.03 571.729L198.172 466.854C219.216 430.135 265.846 417.537 302.279 438.713L330.136 543.588Z" fill="url(#paint0_linear_2163_2754)"/>
<path d="M380.87 482.514C360.382 494.434 334.216 488.124 321.33 468.163L302.303 438.713L330.16 543.588L349.188 573.038C362.097 592.999 388.24 599.31 408.727 587.389L380.87 482.514Z" fill="url(#paint1_linear_2163_2754)"/>
<path d="M380.87 482.538L408.727 587.413L522.244 392.645L494.386 287.77L380.87 482.538Z" fill="url(#paint2_linear_2163_2754)"/>
<path d="M626.304 363.755L727.769 173.936L692.356 62.166L598.724 259.931L626.304 363.779V363.755Z" fill="url(#paint3_linear_2163_2754)"/>
<path d="M626.304 364.783C589.848 343.584 543.241 356.182 522.197 392.925L494.34 288.049C515.384 251.33 562.014 238.732 598.447 259.908L626.304 364.783Z" fill="url(#paint4_linear_2163_2754)"/>
<path d="M226.03 571.707L158.816 687.377L131.237 583.53L198.172 466.832L226.053 571.684L226.03 571.707Z" fill="url(#paint5_linear_2163_2754)"/>
</g>
<defs>
<linearGradient id="paint0_linear_2163_2754" x1="313.913" y1="466.013" x2="222.333" y2="528.862" gradientUnits="userSpaceOnUse">
<stop stop-color="#422562"/>
<stop offset="1" stop-color="#831F82"/>
</linearGradient>
<linearGradient id="paint1_linear_2163_2754" x1="316.649" y1="523.067" x2="385.447" y2="507.427" gradientUnits="userSpaceOnUse">
<stop stop-color="#422562"/>
<stop offset="1" stop-color="#831F82"/>
</linearGradient>
<linearGradient id="paint2_linear_2163_2754" x1="273.68" y1="359.946" x2="525.367" y2="467.942" gradientUnits="userSpaceOnUse">
<stop offset="0.04" stop-color="#520B2E"/>
<stop offset="1" stop-color="#DE007E"/>
</linearGradient>
<linearGradient id="paint3_linear_2163_2754" x1="692.68" y1="165.504" x2="537.214" y2="223.652" gradientUnits="userSpaceOnUse">
<stop stop-color="#181818"/>
<stop offset="1" stop-color="#FFE500"/>
</linearGradient>
<linearGradient id="paint4_linear_2163_2754" x1="663.154" y1="278.279" x2="509.11" y2="335.412" gradientUnits="userSpaceOnUse">
<stop stop-color="#121212"/>
<stop offset="1" stop-color="#FFE500"/>
</linearGradient>
<linearGradient id="paint5_linear_2163_2754" x1="239.101" y1="577.34" x2="136.472" y2="615.637" gradientUnits="userSpaceOnUse">
<stop stop-color="#0069B4"/>
<stop offset="1" stop-color="#181818"/>
</linearGradient>
<clipPath id="clip0_2163_2754">
<rect width="860" height="750" fill="white"/>
</clipPath>
</defs>
</svg>
